src/images/crypto-icon-svg/taas.svg

<svg xmlns="http://www.w3.org/2000/svg" width="32" height="32" viewBox="0 0 32 32">
  <g fill="none">
    <circle cx="16" cy="16" r="16" fill="#002342"/>
    <path fill="#FFF" d="M4,13 L5.29805014,13 L5.29805014,14.2209607 L4,14.2209607 L4,13 Z M5.29805014,17.7737991 L9.07520891,17.7737991 L9.07520891,19 L4,19 L4,15.4419214 L7.81058496,15.4419214 L7.81058496,16.6628821 L5.29805014,16.6628821 L5.29805014,17.7737991 Z M22.9247911,15.4419214 L28,15.4419214 L28,19 L24.189415,19 L24.189415,17.7737991 L26.7019499,17.7737991 L26.7019499,16.6628821 L22.9247911,16.6628821 L22.9247911,15.4419214 Z M26.7231922,14.2798393 L22.9237493,14.2798393 L22.9237493,13.0588786 L26.7231922,13.0588786 L26.7231922,14.2798393 Z M10.3119777,15.4419214 L15.3871866,15.4419214 L15.3871866,17.8262009 L14.1225627,17.8262009 L14.1225627,19 L10.3119777,19 L10.3119777,15.4419214 Z M14.0891365,17.7737991 L14.0891365,16.6628821 L11.6100279,16.6628821 L11.6100279,17.7737991 L14.0891365,17.7737991 Z M10.3119777,13 L15.3871866,13 L15.3871866,14.2209607 L10.3119777,14.2209607 L10.3119777,13 Z M16.6462396,15.4419214 L21.7214485,15.4419214 L21.7214485,17.8262009 L20.4568245,17.8262009 L20.4568245,19 L16.6462396,19 L16.6462396,15.4419214 Z M20.4178273,17.7737991 L20.4178273,16.6628821 L17.9387187,16.6628821 L17.9387187,17.7737991 L20.4178273,17.7737991 Z M16.6462396,13 L21.7214485,13 L21.7214485,14.2209607 L16.6462396,14.2209607 L16.6462396,13 Z"/>
  </g>
</svg>

<svg xmlns="http://www.w3.org/2000/svg" width="32" height="32"><g fill="none"><circle cx="16" cy="16" r="16" fill="#002342"/><path fill="#FFF" d="M4 13h1.298v1.221H4V13zm1.298 4.774h3.777V19H4v-3.558h3.81v1.22H5.299v1.112zm17.627-2.332H28V19h-3.81v-1.226h2.512v-1.111h-3.777v-1.221zm3.798-1.162h-3.8v-1.221h3.8v1.22zm-16.411 1.162h5.075v2.384h-1.264V19h-3.811v-3.558zm3.777 2.332v-1.111H11.61v1.11h2.48zM10.312 13h5.075v1.221h-5.075V13zm6.334 2.442h5.075v2.384h-1.264V19h-3.81v-3.558zm3.772 2.332v-1.111h-2.48v1.11h2.48zM16.646 13h5.075v1.221h-5.075V13z"/></g></svg>
